Unicodia/Resources/Scripts/2B820.svg

<?xml version="1.0" encoding="UTF-8" standalone="no"?>
<!-- Created with Inkscape (http://www.inkscape.org/) -->

<svg
   width="16"
   height="16"
   viewBox="0 0 16 16"
   version="1.1"
   id="svg5"
   inkscape:version="1.2.2 (732a01da63, 2022-12-09)"
   sodipodi:docname="2B820.svg"
   inkscape:export-filename="..\0000.png"
   inkscape:export-xdpi="96"
   inkscape:export-ydpi="96"
   xmlns:inkscape="http://www.inkscape.org/namespaces/inkscape"
   xmlns:sodipodi="http://sodipodi.sourceforge.net/DTD/sodipodi-0.dtd"
   xmlns="http://www.w3.org/2000/svg"
   xmlns:svg="http://www.w3.org/2000/svg">
  <sodipodi:namedview
     id="namedview7"
     pagecolor="#ffffff"
     bordercolor="#666666"
     borderopacity="1.0"
     inkscape:pageshadow="2"
     inkscape:pageopacity="0"
     inkscape:pagecheckerboard="0"
     inkscape:document-units="px"
     showgrid="true"
     width="16mm"
     units="px"
     inkscape:zoom="23.5625"
     inkscape:cx="6.3448276"
     inkscape:cy="2.4615385"
     inkscape:window-width="1680"
     inkscape:window-height="998"
     inkscape:window-x="-8"
     inkscape:window-y="-8"
     inkscape:window-maximized="1"
     inkscape:current-layer="layer1"
     showguides="true"
     inkscape:guide-bbox="true"
     inkscape:snap-bbox="true"
     inkscape:bbox-paths="true"
     inkscape:bbox-nodes="true"
     inkscape:snap-global="true"
     inkscape:showpageshadow="2"
     inkscape:deskcolor="#ffffff">
    <inkscape:grid
       type="xygrid"
       id="grid828"
       originx="0"
       originy="0" />
  </sodipodi:namedview>
  <defs
     id="defs2" />
  <g
     inkscape:label="Layer 1"
     inkscape:groupmode="layer"
     id="layer1">
    <rect
       style="opacity:1;fill:#fff0f5;stroke:none;stroke-width:4.4376;stroke-linejoin:bevel;stop-color:#000000;fill-opacity:1"
       id="rect691"
       width="16"
       height="16"
       x="0"
       y="0" />
    <path
       d="m 5.6835647,10.374515 q 0.073047,-0.175337 0.2483595,-0.02922 0.4090626,0.365288 0.5551564,0.540627 0.1314844,0.131504 0.1022656,0.18995 -0.043828,0.05844 -0.1314843,0.01461 -0.2921876,-0.07306 -0.8473441,0.56985 -1.3294535,1.417316 -3.0679696,2.542404 -0.1314845,0.08767 -0.2191408,-0.01461 -0.058438,-0.07306 0.073047,-0.18995 1.0664848,-0.745187 2.1183601,-1.972555 1.0080471,-1.212755 1.1687503,-1.651102 z m 4.6165643,0.452958 q -0.102266,-0.102281 0,-0.175338 0.08766,-0.08767 0.21914,0.02922 2.381329,1.621878 2.805001,2.527792 0.24836,0.526014 -0.146094,1.022807 -0.116875,0.10228 -0.204531,0.08767 -0.08766,-0.02922 -0.131484,-0.175335 -0.452891,-1.461152 -2.542032,-3.316814 z M 8.9122376,7.1015354 Q 8.8537999,7.4814349 8.8537999,8.358126 v 0.759799 h 2.1037511 l 0.204531,-0.029223 q 0.07305,-0.087669 0.175313,-0.2191728 l 0.438281,-0.730576 q 0.102266,-0.1607266 0.23375,0 1.037266,1.095864 1.022657,1.3588713 -0.02922,0.1461151 -0.219141,0.1607267 H 8.8538001 v 3.5067648 q -0.029219,0.657518 -0.2629689,1.095863 -0.3652344,0.642907 -0.7304689,0.876691 -0.116875,0.116893 -0.1753126,0.116893 -0.073047,0 -0.1314844,-0.365288 Q 7.4220809,14.36346 7.2759871,14.188122 7.1152839,13.939726 6.2679399,13.822834 q -0.23375,-0.04383 -0.2191407,-0.263007 0.014609,-0.233784 0.2483594,-0.219173 1.3732817,0.248396 1.6362506,0.146115 0.2045313,-0.10228 0.2191406,-0.496792 V 9.6585512 H 4.5732519 Q 4.3979393,9.8338894 4.3395018,9.9069469 4.2518452,10.009228 4.193408,9.8923359 4.0619236,9.5416594 3.7112985,9.1763715 3.6090328,9.0594793 3.7405174,9.0010332 3.8281739,8.9133638 3.959658,8.8841411 4.2956737,8.4750185 5.0115333,6.9261977 H 4.2956737 Q 3.7405174,6.9408087 3.3314547,7.0284783 3.1999703,7.0723125 3.1853609,6.9408088 3.1123142,6.6778015 2.8931733,6.4878518 2.7762983,6.3855711 2.8347356,6.3271251 2.8931733,6.2832909 2.9954387,6.3417362 3.5505951,6.4732398 4.2226266,6.4732398 H 5.201455 Q 5.5374707,5.7280524 5.9465334,4.7490807 H 3.1123137 Q 2.4987198,4.7636918 2.045829,4.8805843 1.9143446,4.9244186 1.8997352,4.7636922 1.8266885,4.4568503 1.6075476,4.223066 1.4906726,4.1061739 1.5491099,4.0331163 1.6075476,3.97467 1.709813,4.0477274 2.2649694,4.2084541 2.9370009,4.2084541 H 6.1656738 Q 6.9399709,2.2212876 7.0860647,1.3738196 7.1152835,1.1692583 7.2175491,1.2423159 7.6266117,1.5929923 8.0795025,2.089784 8.1963775,2.2066761 8.1817681,2.3381798 8.1671592,2.4258492 7.9772368,2.4404604 7.7288773,2.4842946 7.5827835,2.7180793 7.2759866,3.0833672 6.9107521,4.2084541 h 5.5661739 q 0.204532,-0.014611 0.438282,-0.3360643 l 0.379843,-0.6429067 q 0.102266,-0.1607267 0.233751,0 1.037265,1.0958639 1.022656,1.3588712 -0.02922,0.1461151 -0.219141,0.1607267 H 6.6916119 Q 6.2825493,5.7134412 5.9611429,6.4732401 h 1.9430475 q 0.1314844,0 0.1460938,-0.014611 L 8.4155187,5.9764486 q 0.029219,-0.058446 0.087657,-0.058446 0.058438,0 0.116875,0.058446 Q 9.0729411,6.3417365 9.4235662,6.7070244 9.5258315,6.8239166 9.2920815,6.9115857 8.9852845,7.0430893 8.9122376,7.1015354 Z M 5.771221,6.9261973 Q 5.581299,7.3791543 5.4352052,7.7298307 5.0553614,8.4896297 4.8216113,9.117925 H 8.1525498 V 6.9261973 Z"
       style="font-weight:bold;font-size:medium;line-height:1.25;font-family:'BabelStone Han';-inkscape-font-specification:'BabelStone Han Bold';text-align:center;letter-spacing:0px;word-spacing:0px;text-anchor:middle;fill:#5c3566;stroke:#5c3566;stroke-width:0.2"
       id="path76090" />
  </g>
</svg>

<svg height="16" viewBox="0 0 16 16" width="16" xmlns="http://www.w3.org/2000/svg"><path d="m0 0h16v16h-16z" fill="#fff0f5"/><path d="m5.68 10.37q.07-.18.25-.03.41.37.56.54.13.13.1.19-.04.06-.13.01-.29-.07-.85.57-1.33 1.42-3.07 2.54-.13.09-.22-.01-.06-.07.07-.19 1.07-.75 2.12-1.97 1.01-1.21 1.17-1.65zm4.62.45q-.1-.1 0-.18.09-.09.22.03 2.38 1.62 2.81 2.53.25.53-.15 1.02-.12.1-.2.09-.09-.03-.13-.18-.45-1.46-2.54-3.32zm-1.39-3.72q-.06.38-.06 1.26v.76h2.1l.2-.03q.07-.09.18-.22l.44-.73q.1-.16.23 0 1.04 1.1 1.02 1.36-.03.15-.22.16h-3.95v3.51q-.03.66-.26 1.1-.37.64-.73.88-.12.12-.18.12-.07 0-.13-.37-.13-.54-.27-.71-.16-.25-1.01-.37-.23-.04-.22-.26.01-.23.25-.22 1.37.25 1.64.15.2-.1.22-.5v-3.33h-3.59q-.17.17-.23.25-.09.1-.15-.02-.13-.35-.48-.71-.1-.12.03-.18.09-.09.22-.12.34-.4 1.05-1.95h-.71q-.56.01-.97.1-.13.04-.14-.09-.08-.26-.3-.45-.11-.1-.06-.16.06-.05.17.01.55.13 1.22.13h.98q.34-.74.75-1.72h-2.84q-.61.01-1.06.13-.14.04-.15-.12-.07-.3-.29-.54-.12-.11-.06-.19.06-.06.16.02.55.16 1.23.16h3.23q.77-1.99.92-2.84.03-.2.13-.13.41.35.86.85.12.12.1.25-.01.09-.2.1-.25.04-.4.28-.3.36-.67 1.49h5.57q.2-.01.44-.34l.38-.64q.1-.16.23 0 1.04 1.1 1.02 1.36-.03.15-.22.16h-7.64q-.41.96-.73 1.72h1.94q.13 0 .15-.01l.37-.48q.03-.06.09-.06.06 0 .12.06.44.36.79.73.11.11-.13.2-.3.13-.38.19zm-3.14-.17q-.19.45-.33.8-.38.76-.62 1.39h3.33v-2.19z" fill="#5c3566" stroke="#5c3566" stroke-width=".2"/></svg>
